X:1670
T:BOBBING JOAN
B:John of the Greeny Cheshire Way
N:© John Offord, Reproduced with permission
M:3/2
L:1/8
K:G
  B2 G2 G2 E2 G4    | B2 G2 G2 E2 F2 A2 |\
  B2 G2 G2 E2 G2 B2 | A2 B2 A2 G2 F2 A2 :|
|:G2 B2 d2 c2 B4    | G2 B2 d2 c2 B2 d2 |\
  e2 d2 c2 B2 c2 B2 | A3 B  ABAG  F3 A :|


